X: 41
T: At Midnight Hour
M: C
L: 1/8
B: "O'Neill's 41"
N: "Slow" "collected by J. O'Neill"
Z: "Transcribed by Norbert Paap, norbertp@bdu.uva.nl"
K:C
A|AEAB cded|cABdc A3 B|cdef gaea|c'aba a3 b|
c'c'ba b-ee-d|c-gB-A G3 A-B|c-aa-g e-fd-e|c-AB-A A2z||
A|GGcd e.A.A.A|EAcB A3 A|G2 B-c d-gd-c|~B-AEF G3 G|
A2 c-B A3 E|c2 d-e d3 d|e-aa-e f-de-d|c2 B-A A3||
